X:123
T:Don Front in Brass
M:6/8
L:1/8
B:Thompson's Compleat Collection of 200 Favourite Country Dances, vol. 1 (London, 1757)
Z:Transcribed and edited by Flynn Titford-Mock, 2007
Z:abc's:AK/Fiddler's Companion
K:A
d|:efe ece|fdf ecA|efe ecA|BGE Bcd|efe ece|fdf ece|fga ecA|BGE Bcd:|
|:c2a ece|fdf ecA|c2a ece|fdB Bcd|c2a ece|fdf ece|aga ecA|BGE Bcd:|
|:ecA acA|ecA fga|ecA acA|BGE Bcd|ecA acA|ecA acA|fga ecA|BGE Bcd:|

